!!!COM: Palestrina, Giovanni Perluigi da
!!!OPR: Missa Memor esto
!!!OMD: Benedictus
!!!OTL: First Section
**kern	**kern	**kern	**kern
*Ibass	*Itenor	*Itenor	*Icant
!Bassus	!Tenor 2	!Tenor 1	!Cantus
*clefF4	*clefGv2	*clefGv2	*clefG2
*k[b-]	*k[b-]	*k[b-]	*k[b-]
*G:dor	*G:dor	*G:dor	*G:dor
*M4/2	*M4/2	*M4/2	*M4/2
=1	=1	=1	=1
1G	0r	1r	0r
2G	.	1d	.
[2G	.	.	.
=2	=2	=2	=2
2G]	0r	2d	0r
2F	.	1d	.
2B-	.	.	.
[2A	.	2c	.
=3	=3	=3	=3
4A]	0r	1B-	0r
4G	.	.	.
1G	.	.	.
.	.	1A	.
2F	.	.	.
=4	=4	=4	=4
2.B-	1d	2G	0r
.	.	4G	.
4A	.	4A	.
2G	2d	4B-	.
.	.	4c	.
4F	[2d	4d	.
4E	.	4e	.
=5	=5	=5	=5
2D	2d]	4f	0r
.	.	4g	.
2F	2c	2.a	.
1G	1B-	.	.
.	.	4g	.
.	.	[2g	.
=6	=6	=6	=6
1D	1A	2g]	1r
.	.	2f#	.
1r	2G	1g	1dd
.	4G	.	.
.	4A	.	.
=7	=7	=7	=7
0r	4B-	4G	2dd
.	4c	4A	.
.	4d	4B-	1dd
.	4e	4c	.
.	4f	4d	.
.	4g	4e	.
.	[2a	2f	2cc
=8	=8	=8	=8
1r	4a]	1g	1b-
.	4g	.	.
.	1g	.	.
2r	.	1d	1a
2d	2f#	.	.
=9	=9	=9	=9
2d	1g	1G	1b-
1d	.	.	.
.	1e	2A	1a
2c	.	[2a	.
=10	=10	=10	=10
1B-	2f	2a]	2.d
.	1d	2g	.
.	.	.	4e
[1A	.	1a	4f
.	.	.	4g
.	2c	.	4a
.	.	.	4b-
=11	=11	=11	=11
1A]	4A	2a	4cc
.	4B-	.	4dd
.	4c	2e	2.ee
.	4A	.	.
1G	2B-	2.g	.
.	.	.	4dd
.	2G	.	[2dd
.	.	4f	.
=12	=12	=12	=12
0r	1A	1e	2dd]
.	.	.	2cc#
.	1B-	1d	2dd
.	.	.	[2ff
=13	=13	=13	=13
2.C	1.c	1g	2ff]
.	.	.	1ee
4D	.	.	.
4E	.	2g	.
4F	.	.	.
4G	4B-	[2g	4dd
4A	4A	.	4cc
=14	=14	=14	=14
4B-	4G	2g]	1dd
4c	4A	.	.
2.d	2B-	2f	.
.	1c	1e	[1g
4c	.	.	.
[2c	.	.	.
=15	=15	=15	=15
2c]	1G	1d	1g]
2B	.	.	.
1c	1g	2e	1r
.	.	[2c	.
=16	=16	=16	=16
1G	2g	2c]	1dd
.	1g	4B-	.
.	.	4A	.
1r	.	1B-	2dd
.	2f	.	[2dd
=17	=17	=17	=17
0r	1e	2G	2dd]
.	.	2A	2cc
.	2.d	2B-	1b-
.	.	2G	.
.	4e	.	.
=18	=18	=18	=18
1r	2f	4d	0a
.	.	4e	.
.	1d	2f	.
1A	.	1e	.
.	2c	.	.
=19	=19	=19	=19
2.d	2.f	0r	1a
4d	4f	.	.
2c#	2e	.	2r
[2d	[2f	.	2a
=20	=20	=20	=20
2d]	2f]	0r	2.dd
2B-	2g	.	.
.	.	.	4dd
2A	4a	.	2cc#
.	4g	.	.
2B-	4f	.	[2dd
.	4e	.	.
=21	=21	=21	=21
2B-	2d	0r	2dd]
2G	1g	.	2b-
1d	.	.	1a
.	2f#	.	.
=22	=22	=22	=22
2.G	1g	2r	2.b-
.	.	2d	.
4A	.	.	4cc
2B-	1r	2.g	2dd
2c	.	.	[2cc
.	.	4g	.
=23	=23	=23	=23
2A	0r	2f#	2cc]
2B-	.	2.g	4b-
.	.	.	4a
2.c	.	.	1g
.	.	4f	.
.	.	4e	.
4B-	.	4d	.
=24	=24	=24	=24
4A	1r	2e	0r
4G	.	.	.
4F	.	2.f	.
4E	.	.	.
4D	1d	.	.
4E	.	4e	.
4F	.	[2d	.
4D	.	.	.
=25	=25	=25	=25
2E	2.g	2d]	0r
2E	.	2c#	.
.	4g	.	.
2D	2f#	2.d	.
4G	[2g	.	.
4A	.	4c	.
=26	=26	=26	=26
4B-	2g]	4d	1r
4G	.	4B-	.
1c	2e	2c	.
.	1d	2G	1g
2B-	.	[2g	.
=27	=27	=27	=27
1A	1c	2g]	2.cc
.	.	2f#	.
.	.	.	4cc
2G	2r	1g	2b
2E	[2c	.	[2cc
=28	=28	=28	=28
4F	2c]	0r	2cc]
4G	.	.	.
4A	2.f	.	2a
4B-	.	.	.
1c	.	.	1g
.	4e	.	.
.	2e	.	.
=29	=29	=29	=29
2r	2f	2r	1a
2A	2e	2c	.
2.d	2d	2.f	1r
.	[2a	.	.
4d	.	4e	.
=30	=30	=30	=30
2c#	4a]	2e	2r
.	4g	.	.
1d	4f	1f	2a
.	4e	.	.
.	2d	.	2.dd
2B-	2d	2g	.
.	.	.	4dd
=31	=31	=31	=31
4A	2e	1a	2cc
4G	.	.	.
4F	2A	.	2.ff
4E	.	.	.
1D	2.d	2r	.
.	.	.	4ee
.	.	[2a	4ff
.	4d	.	4dd
=32	=32	=32	=32
0r	2c#	4a]	2ee
.	.	4g	.
.	1d	4f	2.ff
.	.	4e	.
.	.	1d	.
.	.	.	4ee
.	2B-	.	[2dd
=33	=33	=33	=33
2r	2A	2.e	2dd]
2A	2e	.	2cc#
.	.	4e	.
2.d	2.f	2d	2.dd
.	.	[2a	.
4d	4f	.	8cc
.	.	.	8b-
=34	=34	=34	=34
2c#	2e	4a]	1a
.	.	4g	.
2.d	2.f	4f	.
.	.	4e	.
.	.	4d	2r
4c	4e	4e	.
4B-	4d	2f	[2dd
4A	4c	.	.
=35	=35	=35	=35
1.G	4B-	1.g	4dd]
.	4A	.	4cc
.	4B-	.	4b-
.	4c	.	4a
.	2d	.	2b-
2G	2d	2g	2b-
=36	=36	=36	=36
0D	0d	0f#	0a
*-	*-	*-	*-
!!!CDT: 1525/^1526/-1594/2/2
!!!OCY: Italia
!!!AGN: Mass (Parody)
!!!AST: renaissance, vocal
!!!ASW: Motet 1572 (Palestrina)
!!!PWK: Masses, Book 8
!!!RNB: Cadence finals: A,D
!!!YOR: Le Opere Complete, v. 24, p. 86
!!!YOO: Rome, Italy: Fratelli Scalera
!!!END: 1992//
!!!EED: John Miller
!!!YEC: Copyright 2000, John Miller
!!!YEN: United States of America
!!!YEM: Rights to all derivative electronic formats reserved.
!!!YEM: Refer to licensing agreement for further details.
!!!YEM: This file must be accompanied by the licensing agreement.
!!!YEM: A copy of the licensing agreement may be found at http://www.music-cog.ohio-state.edu/HumdrumDatabases/Palestrina/license.txt
!!!EMD: converted to Humdrum by Bret Aarden
